X: 25347
T: Many A Wild Night
R: polka
M: 2/4
K: Dmajor
|:Ad dc/B/|AF FE/F/|GB BA|F/G/A D2|
Ad dc/B/|AF FE/F/|GB BA|D2 D2:|
|:A>d fa|ge e2|c/B/A/c/ eg|fd dB|
Ad fa|ge ed|ce ba|d2 dB:|
K:Amix
A>B AF|FE EB/c/|d2 dB|c2 c>B|
Ad fe/c/|Ac ec/B/|AB/c/ df|e2 e2|
a>b af|ec BA|Bc/B/ AF|E2 E2|
e2 fe|cA FA|EF A>B|A2 A2||

